src/static/logos/macOS.svg

<?xml version="1.0" encoding="UTF-8"?>
<svg width="512px" height="120px" viewBox="0 0 512 120" version="1.1" xmlns="http://www.w3.org/2000/svg" xmlns:xlink="http://www.w3.org/1999/xlink" preserveAspectRatio="xMidYMid">
    <g>
        <path d="M0,118.067201 L20.0767036,118.067201 L20.0767036,65.8336281 C20.0767036,55.5319609 26.8493059,48.0471816 36.5248058,48.0471816 C45.8774864,48.0471816 51.6828689,53.9224284 51.6828689,63.4191233 L51.6828689,118.065347 L71.1946592,118.065347 L71.1946592,65.3496558 C71.1946592,55.1285476 77.8060582,48.0461515 87.4813517,48.0461515 C97.3178485,48.0461515 102.800618,54.0017513 102.800618,64.4645365 L102.800618,118.066171 L122.87693,118.066171 L122.87693,59.5568223 C122.87693,42.4947891 111.830892,31.1468846 94.9790592,31.1468846 C82.6429825,31.1468846 72.4849047,37.7463386 68.371228,48.2894768 L67.887453,48.2894768 C64.74306,37.3439555 56.1158974,31.1468846 44.022761,31.1468846 C32.4124087,31.1468846 23.3821348,37.6659856 19.6730143,47.5652696 L19.2698822,47.5652696 L19.2698822,32.7566231 L0,32.7566231 L0,118.067201 L0,118.067201 Z M166.822061,104.304916 C158.114194,104.304916 152.309224,99.8783716 152.309224,92.8763285 C152.309224,86.1159624 157.872492,81.7698951 167.547785,81.1260409 L187.301484,79.9188091 L187.301484,86.4379101 C187.301484,96.7395773 178.190505,104.304916 166.822061,104.304916 L166.822061,104.304916 Z M160.774977,119.435469 C171.740309,119.435469 182.464147,113.72134 187.382808,104.46591 L187.78594,104.46591 L187.78594,118.067407 L207.136527,118.067407 L207.136527,59.3149391 C207.136527,42.1723469 193.349208,30.9853545 172.144474,30.9853545 C150.374805,30.9853545 136.749928,42.413818 135.862381,58.3486428 L154.487244,58.3486428 C155.777283,51.2662466 161.824367,46.6787082 171.338457,46.6787082 C181.255659,46.6787082 187.302743,51.8295417 187.302743,60.7629415 L187.302743,66.8796594 L164.726026,68.1673678 C143.924403,69.4550761 132.233552,78.5495939 132.233552,93.6804766 C132.233552,109.052418 144.247016,119.435469 160.77541,119.435469 L160.774977,119.435469 Z M295.265169,63.1780643 C293.894507,45.2307058 279.945903,30.9853545 257.371043,30.9853545 C232.538306,30.9853545 216.411785,48.1279467 216.411785,75.4102639 C216.411785,103.097025 232.537274,119.75482 257.53204,119.75482 C278.979715,119.75482 293.733634,107.19956 295.345667,88.1245815 L276.398192,88.1245815 C274.543755,97.7823945 267.932232,103.577082 257.773329,103.577082 C245.034141,103.577082 236.810709,93.2754151 236.810709,75.4082036 C236.810709,57.8632282 244.954055,47.2393249 257.612332,47.2393249 C268.335757,47.2393249 274.705248,54.08025 276.3179,63.1747678 L295.265375,63.1747678 L295.265169,63.1780643 Z M357.271674,0 C323.328164,0 302.041486,23.0983981 302.041486,60.0401765 C302.041486,96.9819549 323.3261,120 357.271674,120 C391.134685,120 412.421363,96.9819549 412.421363,60.0401765 C412.421363,23.0983981 391.136749,0 357.271674,0 Z M357.271674,17.7060934 C377.992799,17.7060934 391.215184,34.1244785 391.215184,60.0397644 C391.215184,85.8742853 377.992386,102.293082 357.271674,102.293082 C336.470051,102.293082 323.328164,85.8746974 323.328164,60.0397644 C323.328164,34.1248905 336.470464,17.7060934 357.271674,17.7060934 Z M420.890212,85.3921673 C421.777119,106.801092 439.353871,119.999588 466.12208,119.999588 C494.261446,119.999588 512,106.15662 512,84.1044589 C512,66.8009546 502.002093,57.0625826 478.378484,51.67069 L464.994276,48.6123311 C450.723141,45.2321481 444.837466,40.7251687 444.837466,32.9989183 C444.837466,23.3411054 453.706537,16.9025634 466.84863,16.9025634 C480.152133,16.9025634 489.262286,23.4216644 490.230332,34.2866267 L510.064735,34.2866267 C509.58096,13.8442045 492.649207,0.000618100029 467.010453,0.000618100029 C441.692661,0.000618100029 423.712611,13.9239394 423.712611,34.5276857 C423.712611,51.1069828 433.871721,61.408856 455.317538,66.3186306 L470.394896,69.8599317 C485.069143,73.3206737 491.035522,78.1494772 491.035522,86.5195818 C491.035522,96.1773947 481.279524,103.098879 467.251329,103.098879 C453.060898,103.098879 442.338093,96.0970417 441.048054,85.3927854 L420.891244,85.3927854 L420.890212,85.3921673 Z" fill="#000000" fill-rule="nonzero"></path>
    </g>
</svg>

<svg width="512" height="120" xmlns="http://www.w3.org/2000/svg" preserveAspectRatio="xMidYMid"><path d="M0 118.067h20.077V65.834c0-10.302 6.772-17.787 16.448-17.787 9.352 0 15.158 5.875 15.158 15.372v54.646h19.512V65.35c0-10.221 6.611-17.304 16.286-17.304 9.837 0 15.32 5.956 15.32 16.419v53.601h20.076v-58.51c0-17.061-11.046-28.41-27.898-28.41-12.336 0-22.494 6.6-26.608 17.143h-.484c-3.144-10.945-11.771-17.142-23.864-17.142-11.61 0-20.64 6.519-24.35 16.418h-.403V32.757H0v85.31zm166.822-13.762c-8.708 0-14.513-4.427-14.513-11.429 0-6.76 5.563-11.106 15.239-11.75l19.753-1.207v6.519c0 10.302-9.11 17.867-20.479 17.867zm-6.047 15.13c10.965 0 21.69-5.714 26.608-14.97h.403v13.602h19.35V59.315c0-17.143-13.787-28.33-34.992-28.33-21.77 0-35.394 11.429-36.282 27.364h18.625c1.29-7.083 7.337-11.67 16.851-11.67 9.918 0 15.965 5.15 15.965 14.084v6.117l-22.577 1.287c-20.802 1.288-32.492 10.383-32.492 25.513 0 15.372 12.013 25.755 28.541 25.755zm134.49-56.257c-1.37-17.947-15.32-32.193-37.894-32.193-24.833 0-40.96 17.143-40.96 44.425 0 27.687 16.126 44.345 41.121 44.345 21.448 0 36.202-12.555 37.814-31.63h-18.948c-1.854 9.657-8.466 15.452-18.625 15.452-12.739 0-20.962-10.302-20.962-28.169 0-17.545 8.143-28.169 20.801-28.169 10.724 0 17.093 6.841 18.706 15.936h18.947v.003zM357.272 0c-33.944 0-55.23 23.098-55.23 60.04S323.325 120 357.271 120c33.863 0 55.15-23.018 55.15-59.96S391.136 0 357.271 0zm0 17.706c20.72 0 33.943 16.418 33.943 42.334 0 25.834-13.223 42.253-33.943 42.253-20.802 0-33.944-16.418-33.944-42.253 0-25.915 13.142-42.334 33.944-42.334zm63.618 67.686c.887 21.41 18.464 34.608 45.232 34.608C494.262 120 512 106.157 512 84.104c0-17.303-9.998-27.041-33.622-32.433l-13.384-3.059c-14.27-3.38-20.157-7.887-20.157-15.613 0-9.658 8.87-16.096 22.012-16.096 13.303 0 22.413 6.519 23.381 17.384h19.835C509.58 13.844 492.649 0 467.01 0c-25.317 0-43.297 13.923-43.297 34.527 0 16.579 10.159 26.88 31.605 31.79l15.077 3.542c14.674 3.46 20.64 8.29 20.64 16.66 0 9.657-9.755 16.579-23.784 16.579-14.19 0-24.913-7.002-26.203-17.706h-20.157z"/></svg>
